src/images/crypto-icon-svg/dash.svg

<svg xmlns="http://www.w3.org/2000/svg" width="32" height="32" viewBox="0 0 32 32">
  <g fill="none" fill-rule="evenodd">
    <circle cx="16" cy="16" r="16" fill="#1C75BC"/>
    <path fill="#FFF" d="M26.5714286,12.9714286 L24.5333333,19.352381 C24.5333333,19.352381 23.2761905,22.5333333 20.2857143,22.5333333 C17.2952381,22.5333333 5.86666667,22.5333333 5.86666667,22.5333333 L6.8952381,19.352381 L19.9238095,19.352381 L19.9619048,19.352381 L22.0190476,12.9714286 L8.97142857,12.9714286 L9.98095238,9.79047619 C9.98095238,9.79047619 21.1809524,9.79047619 24.3238095,9.79047619 C27.4666667,9.79047619 26.5714286,12.9714286 26.5714286,12.9714286 Z M6.38095238,14.6857143 L14.1142857,14.6857143 L13.1238095,17.6380952 L5.37142857,17.6380952 L6.38095238,14.6857143 Z"/>
  </g>
</svg>

<svg xmlns="http://www.w3.org/2000/svg" width="32" height="32"><g fill="none" fill-rule="evenodd"><circle cx="16" cy="16" r="16" fill="#1C75BC"/><path fill="#FFF" d="M26.571 12.971l-2.038 6.381s-1.257 3.181-4.247 3.181H5.866l1.03-3.18h13.066l2.057-6.382H8.971l1.01-3.18h14.343c3.143 0 2.247 3.18 2.247 3.18zm-20.19 1.715h7.733l-.99 2.952H5.37l1.01-2.952z"/></g></svg>
